X:1
T:Sheelicks
M:6/8
L:1/4
K:C
 G G/2| c c/2 e d/2| c3/2 G G/2| A c/2 c A/2| A/2 G G E/2| F F/2 F F/2|\
 E E/2 E E/2| D E/2 D C/2| B,/2 D G G/2| C C/2 C E/2| G3/2 G G/2| F A/2 A A/2|\
 F/2 A A A/2| E G/2 G G/2| G3/2 G G/2| G B,/2 B, B,/2| C3/2 G3/2| c3/2 e d/2|\
 c3/2 G/2 G| A/2 c c B/2| A/2 G G E/2| F F/2 F F/2| E E/2 E E/2| D/2 E D C/2|\
 B,/2 D G G/2| C E/2 E E/2| G G/2 G G/2| F A/2 A F/2| F A/2 F F/2|\
 E G/2 G G/2| G3/2 G G/2| G B,/2 B, B,/2| C3/2||
